!!!OTL: Hausrat (189), S. 412
!!!id: T0368
**kern
*clefG2
*k[f#]
*G:
{8g
=1
8g
4b
4b
4b
=2
8dd
8cc
8cc
8b
8b
8a
=3
8a
8a
4a}
4r
=4
{4b
4g
4a
=5
4b}
4r
=6
{8b
8b
=7
8cc
8cc
4cc
8dd
8cc
=8
8b
8b
8g
8g}
=9
{8g
8g
=10
4a
4g
4f#
=11
4dd}
4r
=12
{8cc
8cc
=13
8cc
8cc
4cc
8dd
8cc
=14
8b
8b
8g
8g}
=15
{8g
8g
=16
4a
4g
4f#
=17
4g}
2r
==
*-
!!!minrhy: 8
!!!meters: 3/4 ]  ZZ[6
!!!cut: Hausrat (189), S. 412
!!!reg: Luxemburg
!!!trd: Singendes Volk, Esch-Alzette, 1937 posth.
!!!rhy1:   X_X_X_  XXXXXX  XXX_0_
!!!rhy2: X_X_X_  X_0_
!!!key: T0368  08  G 3/4 ]  ZZ[6
!!!mod: SECHSTONSKALA DUR ?]  AMBITUS[6b
!!!kad: 231511
!!!akz: 352_33_43_25_43_21_
!!!fot: 'a__b__c__d__cw_cs"
!!!for: 'a__aw_b__aw_b__aw_
!!!fok: '^d_V__^d_/__\__-__
!! PHRAS[VORWIEGEND AUFTAKTIG]
!!!fkt: Hochzeits-, Ehestandslied
!!!bem: Heffingen, fff Maria Berchem, 1907
!! THILL; Mathias
!! PR[37] 2K[4] 2G[10] 3K[4] 3G[1] 4A[5] 4Ü[0] 5A[0] 6K[2] 6G[4]
!! 7K[0] 7G[0] 8A[0] MEHR[0] SI[29] ABS[84] SR[13] SP[15]
!! ST[20] 2k[4] 2g[13] 3k[6] 3g[4] 4d[7] 4ü[0] 5d[0] 6k[1] 6g[0]
!! 7k[0] 7g[0] 8d[0] mehr[0] si[35] dm[-6] sr[17] sp[18]
!! 1F[7] 2F[64] 3F[21] 4F[1] LF[0] 2P[0] 3P[7] 4P[0] TRI[0] DF[5] AB[89]
!! TF[0] U3K[0] U3[0] U4[0] U4Ü[0] U5[0] U6K[0] U6[0] U7K[0] U7[0]
!! N1[0] N2K[0] N2[0] N3K[0] N3[6] N4[7] N4Ü[0] N5[26] N6K[0] N6[11]
!!!n7k: 0] N7[11] O1[28] O2K[0] O2[7] O3K[0] O3[5] HÖ[0
